X: 1
T: Polka des Allumettes
Z: 2006 John Chambers <jc@trillian.mit.edu>
M: 2/4
L: 1/16
K: G
|: "G"B2d2 d2B2 | "D7"A2c2 c2A2 \
|1,3 "G"G2B2 B2G2 | "D7"A2F2 D4 \
:|2,4 "G"B2G2 "D7"A2F2 | "G"G4 z4 :|
|: "C"e2e2 e2fe | "G"d2d2 d4 \
| "C"c2c2 c2dc | "G"B2B2 B4 \
|1 "G"B2G2 "D7"c2A2 | "G"d2B2 "D7"c2A2 |
|  "G"B2G2 "D7"c2A2 | "G"d2B2 "D7"c2A2 \
|  "G"B2G2 "D7"A2F2 | "G"G4 z4 \
:|2"D7"A2A2 A2BA | "G"G4 z4 |]
